img/transactions.svg

<svg width="24" height="24" viewBox="0 0 24 24" fill="none" xmlns="http://www.w3.org/2000/svg">
<path opacity="0.4" d="M15.7162 16.2236H8.49622" stroke="#2E2F30" stroke-width="1.5" stroke-linecap="round" stroke-linejoin="round"/>
<path opacity="0.4" d="M15.7162 12.0371H8.49622" stroke="#2E2F30" stroke-width="1.5" stroke-linecap="round" stroke-linejoin="round"/>
<path opacity="0.4" d="M11.2513 7.86035H8.49634" stroke="#2E2F30" stroke-width="1.5" stroke-linecap="round" stroke-linejoin="round"/>
<path fill-rule="evenodd" clip-rule="evenodd" d="M15.9086 2.75C15.9086 2.75 8.23161 2.754 8.21961 2.754C5.45961 2.771 3.75061 4.587 3.75061 7.357V16.553C3.75061 19.337 5.47261 21.16 8.25661 21.16C8.25661 21.16 15.9326 21.157 15.9456 21.157C18.7056 21.14 20.4156 19.323 20.4156 16.553V7.357C20.4156 4.573 18.6926 2.75 15.9086 2.75Z" stroke="#2E2F30" stroke-width="1.5" stroke-linecap="round" stroke-linejoin="round"/>
</svg>

<svg width="24" height="24" fill="none" xmlns="http://www.w3.org/2000/svg"><path opacity=".4" d="M15.716 16.224h-7.22M15.716 12.037h-7.22M11.251 7.86H8.496" stroke="#2E2F30" stroke-width="1.5" stroke-linecap="round" stroke-linejoin="round"/><path clip-rule="evenodd" d="m15.909 2.75-7.69.004c-2.76.017-4.468 1.833-4.468 4.603v9.196c0 2.784 1.722 4.607 4.506 4.607l7.689-.003c2.76-.017 4.47-1.834 4.47-4.604V7.357c0-2.784-1.723-4.607-4.507-4.607z" stroke="#2E2F30" stroke-width="1.5" stroke-linecap="round" stroke-linejoin="round"/></svg>
